X:1
T:MISS GRACE STEWART
T:MISS GRACE STEWART
T:EARL OF EGLINTON
C:EARL OF EGLINTON
%%score 1 2
L:1/8
M:4/4
K:Gmin
V:1 treble 
V:2 bass 
V:1
 F | (D<G) G>A B>c df | AF c>A{A} F2 FA | (D<G) G>A B>c dg | f>d Tc>A{A} d2 G :| d | %6
 Tg>a g>f Td>c d>=e | f>g fd c>A FA | Tg>a gf Td>c d=e | f>d Tc>A{A} d2 Gd | Tg>a g>f Td>c d=e | %11
 f>g fd cA FA | G>B A>c B>d c>g | f>d Tc>A{A} d2 G |] %14
V:2
 z | [G,B,D]2 [D,B,D]2 [G,B,D]2 [D,B,D]2 | [F,A,C]2 [C,A,C]2 [F,A,C]2 [C,A,C]2 | %3
 [G,B,D]2 [D,B,D]2 [G,B,D]2 [D,B,D]2 | C,2 A,2 [G,B,]2 [G,B,] :| z | G,2 [B,D]2 D,2 [B,D]2 | %7
 F,2 [A,C]2 C,2 [A,C]2 | G,2 [B,D]2 D,2 [B,D]2 | F,2 A,2 [G,B,]2 [G,B,]2 | G,2 [B,D]2 D,2 [B,D]2 | %11
 F,2 [A,C]2 C,2 [A,C]2 | [D,,D,]2 [^F,,^F,]2 [G,,G,]2 [E,,E,]2 | %13
 [D,,D,]2 [F,,F,]2 [G,,G,]2 [G,B,D] |] %14

